X: 1
T: Ajde Jano
C: trad. Serbian
O: arr. Shana Aisenberg
R: lesnoto
S: Fiddle Hell Online 2022-3-25 handout for Shana Aisenberg workshop
Z: 2022 John Chambers <jc:trillian.mit.edu>
M: 7/8
L: 1/8
K: Dm
[| "Dm"F2E DE F2 | F2E E2D2 | "C"DED C2 C2 | C3 D2 E2 |
|: "F"F2G A2 A2 | "Dm"G2F FE D2 | "Gm"G2F FE DE | "Dm"F3- F4 | D3- D4- | D3- D4 :|
